**kern	**silbe	**kern	**silbe	**harmony	**chordsym	**phrase	**timestamp	**leadinstrument
*ICvox	*	*ICvox	*	*M4/4	*M4/4	*	*	*
*	*	*	*	*F:	*F:	*	*	*
=1	=1	=1	=1	=1	=1	=1	=1	=1
*d:	*	*d:	*	*	*	*	*	*
*M2/4	*	*M2/4	*	*	*	*	*	*
*clefG2	*	*clefG2	*	*	*	*	*	*
2r	.	2r	.	1r;	r	.	0	r
=2	=2	=2	=2	=2	=2	=2	=2	=2
*M4/4	*	*M4/4	*	*	*	*	*	*
1r	.	1r	.	.	.	.	.	.
=1	=1	=1	=1	=1	=1	=1	=1	=1
*	*	*	*	*>A_intro	*>A_intro	*>A_intro	*>A_intro	*>A_intro
*	*	*	*	*M2/4	*M2/4	*M2/4	*M2/4	*M2/4
.	.	.	.	4Dmm	D:min7 (D F A C)	newline	0.232	r
.	.	.	.	4FMM	F:maj7 (F A C E)	.	.	r
=3	=3	=3	=3	=3	=3	=3	=3	=3
*M2/4	*	*M2/4	*	*M4/4	*M4/4	*M4/4	*M4/4	*M4/4
2r	.	2r	.	1GMm	G:7 (G B D F)	.	.	r
=4	=4	=4	=4	=4	=4	=4	=4	=4
*M4/4	*	*M4/4	*	*	*	*	*	*
1r	.	1r	.	.	.	.	.	.
=3	=3	=3	=3	=3	=3	=3	=3	=3
*	*	*	*	*M2/4	*M2/4	*M2/4	*M2/4	*M2/4
.	.	.	.	4GM	G:maj (G B D)	.	.	r
.	.	.	.	4CM	C:maj (C E G)	.	.	r
=5	=5	=5	=5	=5	=5	=5	=5	=5
*M2/4	*	*M2/4	*	*M4/4	*M4/4	*M4/4	*M4/4	*M4/4
2r	.	2r	.	1FM	F:maj (F A C)	.	.	r
=6	=6	=6	=6	=6	=6	=6	=6	=6
*M4/4	*	*M4/4	*	*	*	*	*	*
1r	.	1r	.	.	.	.	.	.
=5	=5	=5	=5	=5	=5	=5	=5	=5
*	*	*	*	*M2/4	*M2/4	*M2/4	*M2/4	*M2/4
.	.	.	.	4Dmm	D:min7 (D F A C)	newline	9.555	r
.	.	.	.	4FMM	F:maj7 (F A C E)	.	.	r
=7	=7	=7	=7	=7	=7	=7	=7	=7
*M2/4	*	*M2/4	*	*M4/4	*M4/4	*M4/4	*M4/4	*M4/4
2r	.	2r	.	1GMm	G:7 (G B D F)	.	.	r
=8	=8	=8	=8	=8	=8	=8	=8	=8
*M4/4	*	*M4/4	*	*	*	*	*	*
1r	.	1r	.	.	.	.	.	.
=7	=7	=7	=7	=7	=7	=7	=7	=7
*	*	*	*	*M2/4	*M2/4	*M2/4	*M2/4	*M2/4
.	.	.	.	4GM	G:maj (G B D)	.	.	r
.	.	.	.	4CM	C:maj (C E G)	.	.	r
=9	=9	=9	=9	=9	=9	=9	=9	=9
*	*	*	*	*M4/4	*M4/4	*M4/4	*M4/4	*M4/4
1r	.	1r	.	1FM	F:maj (F A C)	.	.	r
=10	=10	=10	=10	=10	=10	=10	=10	=10
1r	.	1r	.	1CMm	C:7 (C E G B-)	newline	18.695	r
=11	=11	=11	=11	=11	=11	=11	=11	=11
*clefC3	*	*	*	*	*	*	*	*
8.r	.	1r	.	1CMm	C:7 (C E G B-)	.	.	r
16G	I	.	.	.	.	.	.	.
8c	do	.	.	.	.	.	.	.
16d	be-	.	.	.	.	.	.	.
[16e	-lieve	.	.	.	.	.	.	.
16e]	_	.	.	.	.	.	.	.
8d	in	.	.	.	.	.	.	.
16c	you,	.	.	.	.	.	.	.
8G	_	.	.	.	.	.	.	.
8r	_	.	.	.	.	.	.	.
=12	=12	=12	=12	=12	=12	=12	=12	=12
*	*	*	*	*>B_verse	*>B_verse	*>B_verse	*>B_verse	*>B_verse
16e-	and	1r	.	1CM	C:maj (C E G)	newline	24.922	voice
8f	I	.	.	.	.	.	.	.
8fq	_	.	.	.	.	.	.	.
[16g	know	.	.	.	.	.	.	.
16g]	_	.	.	.	.	.	.	.
16f	you	.	.	.	.	.	.	.
16e-	be-	.	.	.	.	.	.	.
8fq	_	.	.	.	.	.	.	.
[16g	-lieve	.	.	.	.	.	.	.
16g]	_	.	.	.	.	.	.	.
16f	_	.	.	.	.	.	.	.
16f	in	.	.	.	.	.	.	.
8cq	_	.	.	.	.	.	.	.
[16d	me,	.	.	.	.	.	.	.
16d]	_	.	.	.	.	.	.	.
16c	_	.	.	.	.	.	.	.
16B-	_	.	.	.	.	.	.	.
16r	_	.	.	.	.	.	.	.
=13	=13	=13	=13	=13	=13	=13	=13	=13
8fq	_	.	.	.	.	.	.	.
8g	oh,	1r	.	2E-M	E-:maj (E- G B-)	.	.	voice
4f	_	.	.	.	.	.	.	.
8cq	_	.	.	.	.	.	.	.
8d	yeah!	.	.	.	.	.	.	.
4c	_	.	.	2B-M	B-:maj (B- D F)	.	.	voice
4r	_	.	.	.	.	.	.	.
=14	=14	=14	=14	=14	=14	=14	=14	=14
8fq	_	.	.	.	.	.	.	.
8g	Oh,	1r	.	4E-M	E-:maj (B- E- G)	.	.	voice
4f	_	.	.	.	.	.	.	.
.	.	.	.	4B-M	B-:maj (B- D F)	.	.	voice
8cq	_	.	.	.	.	.	.	.
8d	yeah!	.	.	.	.	.	.	.
4c	_	.	.	2FM	F:maj (F A C)	.	.	voice
4r	_	.	.	.	.	.	.	.
=15	=15	=15	=15	=15	=15	=15	=15	=15
8.r	.	1r	.	4E-M	E-:maj (B- E- G)	.	.	voice
16G	But	.	.	.	.	.	.	.
8c	now	.	.	4B-M	B-:maj (B- D F)	.	.	voice
8d	we	.	.	.	.	.	.	.
16e	rea	.	.	2FM	F:maj (F A C)	.	.	voice
8d	_	.	.	.	.	.	.	.
16c	lize,	.	.	.	.	.	.	.
8G	_	.	.	.	.	.	.	.
8r	_	.	.	.	.	.	.	.
=16	=16	=16	=16	=16	=16	=16	=16	=16
8e-	love's	1r	.	1CM	C:maj (C E G)	newline	37.29	voice
16f	not	.	.	.	.	.	.	.
8fq	_	.	.	.	.	.	.	.
[16g	all	.	.	.	.	.	.	.
16g]	_	.	.	.	.	.	.	.
16f	that	.	.	.	.	.	.	.
16e-	it's	.	.	.	.	.	.	.
8fq	_	.	.	.	.	.	.	.
[16g	s'posed	.	.	.	.	.	.	.
16g]	_	.	.	.	.	.	.	.
16f	_	.	.	.	.	.	.	.
16f	to	.	.	.	.	.	.	.
8cq	_	.	.	.	.	.	.	.
[16d	be,	.	.	.	.	.	.	.
16d]	_	.	.	.	.	.	.	.
16c	_	.	.	.	.	.	.	.
16B-	_	.	.	.	.	.	.	.
16r	_	.	.	.	.	.	.	.
=17	=17	=17	=17	=17	=17	=17	=17	=17
8fq	_	.	.	.	.	.	.	.
8g	oh,	1r	.	2E-M	E-:maj (E- G B-)	.	.	voice
4f	_	.	.	.	.	.	.	.
8cq	_	.	.	.	.	.	.	.
8d	yeah!	.	.	.	.	.	.	.
4c	_	.	.	2B-M	B-:maj (B- D F)	.	.	voice
4r	_	.	.	.	.	.	.	.
=18	=18	=18	=18	=18	=18	=18	=18	=18
8fq	_	.	.	.	.	.	.	.
8g	Oh,	1r	.	4E-M	E-:maj (B- E- G)	.	.	voice
4f	_	.	.	.	.	.	.	.
.	.	.	.	4B-M	B-:maj (B- D F)	.	.	voice
8cq	_	.	.	.	.	.	.	.
8d	yeah!	.	.	.	.	.	.	.
4c	_	.	.	2FM	F:maj (F A C)	.	.	voice
4r	_	.	.	.	.	.	.	.
=19	=19	=19	=19	=19	=19	=19	=19	=19
8.r	.	1r	.	4E-M	E-:maj (B- E- G)	.	.	voice
16A	And	.	.	.	.	.	.	.
8a	kno-	.	.	4B-M	B-:maj (B- D F)	.	.	voice
16b-	-wing	.	.	.	.	.	.	.
[16a	that	.	.	.	.	.	.	.
16a]	_	.	.	2FM	F:maj (F A C)	.	.	voice
16fq	_	.	.	.	.	.	.	.
8.g	you	.	.	.	.	.	.	.
8f	would	.	.	.	.	.	.	.
8e	have	.	.	.	.	.	.	.
=20	=20	=20	=20	=20	=20	=20	=20	=20
*	*	*	*	*>C_chorus	*>C_chorus	*>C_chorus	*>C_chorus	*>C_chorus
8f	wan-	1r	.	1Amm	A:min7 (A C E G)	newline	49.482	voice
16g	-ted	.	.	.	.	.	.	.
[16f	it	.	.	.	.	.	.	.
16f]	_	.	.	.	.	.	.	.
8e	this	.	.	.	.	.	.	.
[16d	way	.	.	.	.	.	.	.
4d]	_	.	.	.	.	.	.	.
4r	.	.	.	.	.	.	.	.
=21	=21	=21	=21	=21	=21	=21	=21	=21
8.r	.	1r	.	1Dmm	D:min7 (D F A C)	.	.	voice
16A	I	.	.	.	.	.	.	.
8a	do	.	.	.	.	.	.	.
16b-	be-	.	.	.	.	.	.	.
[16a	-lieve	.	.	.	.	.	.	.
16a]	_	.	.	.	.	.	.	.
32f	I'm	.	.	.	.	.	.	.
32g	_	.	.	.	.	.	.	.
8g	_	.	.	.	.	.	.	.
16f	fee-	.	.	.	.	.	.	.
8.e	-ling	.	.	.	.	.	.	.
=22	=22	=22	=22	=22	=22	=22	=22	=22
*M2/4	*	*M2/4	*	*	*	*	*	*
8f	stron-	2r	.	1Amm	A:min7 (A C E G)	.	.	voice
16g	-ger	.	.	.	.	.	.	.
16f	ev-	.	.	.	.	.	.	.
16e	-'ry-	.	.	.	.	.	.	.
32d	-day!	.	.	.	.	.	.	.
32e	_	.	.	.	.	.	.	.
[8d	_	.	.	.	.	.	.	.
=23	=23	=23	=23	=23	=23	=23	=23	=23
*M4/4	*	*M4/4	*	*	*	*	*	*
4.d]	_	1r	.	.	.	.	.	.
8r	_	.	.	.	.	.	.	.
=22	=22	=22	=22	=22	=22	=22	=22	=22
*	*	*	*	*M2/4	*M2/4	*M2/4	*M2/4	*M2/4
2r	.	.	.	4Dmm	D:min7 (D F A C)	newline	58.649	voice
.	.	.	.	4FMM	F:maj7 (F A C E)	.	.	voice
=24	=24	=24	=24	=24	=24	=24	=24	=24
*	*	*	*	*M4/4	*M4/4	*M4/4	*M4/4	*M4/4
8.r	.	1r	.	1GMm	G:7 (G B D F)	.	.	voice
16G	I	.	.	.	.	.	.	.
8Aq	_	.	.	.	.	.	.	.
8c	know	.	.	.	.	.	.	.
8d	we	.	.	.	.	.	.	.
16e	real-	.	.	.	.	.	.	.
8d	-ly	.	.	.	.	.	.	.
16c	tried,	.	.	.	.	.	.	.
8G	_	.	.	.	.	.	.	.
16r	_	.	.	.	.	.	.	.
16G	to-	.	.	.	.	.	.	.
=25	=25	=25	=25	=25	=25	=25	=25	=25
*	*	*	*	*>B_verse	*>B_verse	*>B_verse	*>B_verse	*>B_verse
8dq	_	.	.	.	.	.	.	.
16e-	-ge-	2g b- ee-	_	1CM	C:maj (C E G)	newline	63.166	voice
8f	-ther	.	.	.	.	.	.	.
8fq	_	.	.	.	.	.	.	.
[16g	we	.	.	.	.	.	.	.
16g]	_	.	.	.	.	.	.	.
16f	had	.	.	.	.	.	.	.
16e-	_	.	.	.	.	.	.	.
8fq	_	.	.	.	.	.	.	.
[16g	love	.	.	.	.	.	.	.
16g]	_	2f b- dd	_	.	.	.	.	.
16f	_	.	.	.	.	.	.	.
16f	in-	.	.	.	.	.	.	.
8cq	_	.	.	.	.	.	.	.
[16d	-side,	.	.	.	.	.	.	.
16d]	_	.	.	.	.	.	.	.
16c	_	.	.	.	.	.	.	.
16B-	_	.	.	.	.	.	.	.
16r	_	.	.	.	.	.	.	.
=26	=26	=26	=26	=26	=26	=26	=26	=26
8fq	_	.	.	.	.	.	.	.
8g	oh,	1r	.	2E-M	E-:maj (E- G B-)	.	.	voice
4f	_	.	.	.	.	.	.	.
8cq	_	.	.	.	.	.	.	.
8d	yeah!	.	.	.	.	.	.	.
4c	_	.	.	2B-M	B-:maj (B- D F)	.	.	voice
4r	_	.	.	.	.	.	.	.
=27	=27	=27	=27	=27	=27	=27	=27	=27
8fq	_	.	.	.	.	.	.	.
8g	Oh,	1r	.	4E-M	E-:maj (B- E- G)	.	.	voice
4f	_	.	.	.	.	.	.	.
.	.	.	.	4B-M	B-:maj (B- D F)	.	.	voice
8cq	_	.	.	.	.	.	.	.
8d	yeah!	.	.	.	.	.	.	.
4c	_	.	.	2FM	F:maj (F A C)	.	.	voice
4r	_	.	.	.	.	.	.	.
=28	=28	=28	=28	=28	=28	=28	=28	=28
8.r	.	1r	.	4E-M	E-:maj (B- E- G)	.	.	voice
16G	So	.	.	.	.	.	.	.
8c	now	.	.	4B-M	B-:maj (B- D F)	.	.	voice
16d	the	.	.	.	.	.	.	.
16dq	_	.	.	.	.	.	.	.
[16e	time	.	.	.	.	.	.	.
16e]	_	.	.	2FM	F:maj (F A C)	.	.	voice
8d	has	.	.	.	.	.	.	.
16c	come,	.	.	.	.	.	.	.
8G	_	.	.	.	.	.	.	.
16r	_	.	.	.	.	.	.	.
16G	for	.	.	.	.	.	.	.
=29	=29	=29	=29	=29	=29	=29	=29	=29
16dq	_	.	.	.	.	.	.	.
8e-	both	2g b- ee-	_	1CM	C:maj (C E G)	newline	75.191	voice
16f	of	.	.	.	.	.	.	.
8fq	_	.	.	.	.	.	.	.
[16g	us	.	.	.	.	.	.	.
16g]	_	.	.	.	.	.	.	.
16f	to	.	.	.	.	.	.	.
16e-	live	.	.	.	.	.	.	.
8fq	_	.	.	.	.	.	.	.
[16g	on	.	.	.	.	.	.	.
16g]	_	2f b- dd	_	.	.	.	.	.
16f	_	.	.	.	.	.	.	.
16f	the	.	.	.	.	.	.	.
8cq	_	.	.	.	.	.	.	.
[16d	run,	.	.	.	.	.	.	.
16d]	_	.	.	.	.	.	.	.
16c	_	.	.	.	.	.	.	.
16B-	_	.	.	.	.	.	.	.
16r	_	.	.	.	.	.	.	.
=30	=30	=30	=30	=30	=30	=30	=30	=30
8fq	_	.	.	.	.	.	.	.
8g	oh,	1r	.	2E-M	E-:maj (E- G B-)	.	.	voice
4f	_	.	.	.	.	.	.	.
8cq	_	.	.	.	.	.	.	.
8d	yeah!	.	.	.	.	.	.	.
4c	_	.	.	2B-M	B-:maj (B- D F)	.	.	voice
4r	_	.	.	.	.	.	.	.
=31	=31	=31	=31	=31	=31	=31	=31	=31
8fq	_	.	.	.	.	.	.	.
8g	Oh,	1r	.	4E-M	E-:maj (B- E- G)	.	.	voice
4f	_	.	.	.	.	.	.	.
.	.	.	.	4B-M	B-:maj (B- D F)	.	.	voice
8cq	_	.	.	.	.	.	.	.
8d	yeah!	.	.	.	.	.	.	.
4c	_	.	.	2FM	F:maj (F A C)	.	.	voice
4r	_	.	.	.	.	.	.	.
=32	=32	=32	=32	=32	=32	=32	=32	=32
8.r	.	1r	.	4E-M	E-:maj (B- E- G)	.	.	voice
16A	And	.	.	.	.	.	.	.
8a	kno-	.	.	4B-M	B-:maj (B- D F)	.	.	voice
16b-	-wing	.	.	.	.	.	.	.
[16a	that	.	.	.	.	.	.	.
16a]	_	.	.	2FM	F:maj (F A C)	.	.	voice
16fq	_	.	.	.	.	.	.	.
8g	you	.	.	.	.	.	.	.
[16f	would	.	.	.	.	.	.	.
16f]	_	.	.	.	.	.	.	.
8.e	have	.	.	.	.	.	.	.
=33	=33	=33	=33	=33	=33	=33	=33	=33
*	*	*	*	*>C_chorus	*>C_chorus	*>C_chorus	*>C_chorus	*>C_chorus
8f	wan-	1r	.	1Amm	A:min7 (A C E G)	newline	87.16	->
16g	-ted	.	.	.	.	.	.	.
[16f	it	.	.	.	.	.	.	.
16f]	_	.	.	.	.	.	.	.
8e	this	.	.	.	.	.	.	.
[16d	way	.	.	.	.	.	.	.
4d]	_	.	.	.	.	.	.	.
4r	.	.	.	.	.	.	.	.
=34	=34	=34	=34	=34	=34	=34	=34	=34
8.r	.	1r	.	1Dmm	D:min7 (D F A C)	.	.	->
16A	I	.	.	.	.	.	.	.
8a	do	.	.	.	.	.	.	.
16b-	be-	.	.	.	.	.	.	.
[16a	-lieve	.	.	.	.	.	.	.
16a]	_	.	.	.	.	.	.	.
32f	I'm	.	.	.	.	.	.	.
32g	_	.	.	.	.	.	.	.
8g	_	.	.	.	.	.	.	.
16f	fee-	.	.	.	.	.	.	.
8.e	-ling	.	.	.	.	.	.	.
=35	=35	=35	=35	=35	=35	=35	=35	=35
*M2/4	*	*M2/4	*	*	*	*	*	*
8f	stron-	2r	.	1Amm	A:min7 (A C E G)	.	.	->
16g	-ger	.	.	.	.	.	.	.
16f	ev-	.	.	.	.	.	.	.
16e	-'ry-	.	.	.	.	.	.	.
32d	-day!	.	.	.	.	.	.	.
32e	_	.	.	.	.	.	.	.
[8d	_	.	.	.	.	.	.	.
=36	=36	=36	=36	=36	=36	=36	=36	=36
*M4/4	*	*M4/4	*	*	*	*	*	*
2d]	_	1r	.	.	.	.	.	.
=35	=35	=35	=35	=35	=35	=35	=35	=35
*	*	*	*	*>A_interlude	*>A_interlude	*>A_interlude	*>A_interlude	*>A_interlude
*	*	*	*	*M2/4	*M2/4	*M2/4	*M2/4	*M2/4
2r	_	.	.	4Dmm	D:min7 (D F A C)	newline	96.078	voice
.	.	.	.	4FM	F:maj (F A C)	.	.	voice
=37	=37	=37	=37	=37	=37	=37	=37	=37
*M2/4	*	*M2/4	*	*M4/4	*M4/4	*M4/4	*M4/4	*M4/4
8.d	Yeah,	2r	.	1GM	G:maj (G B D)	.	.	voice
[16e	yeah,	.	.	.	.	.	.	.
8e]	_	.	.	.	.	.	.	.
8eq	_	.	.	.	.	.	.	.
[8f	yeah!	.	.	.	.	.	.	.
=38	=38	=38	=38	=38	=38	=38	=38	=38
*M4/4	*	*M4/4	*	*	*	*	*	*
2f]	_	1r	.	.	.	.	.	.
=37	=37	=37	=37	=37	=37	=37	=37	=37
*	*	*	*	*M2/4	*M2/4	*M2/4	*M2/4	*M2/4
2r	_	.	.	4GM	G:maj (G B D)	.	.	voice
.	.	.	.	4CM	C:maj (C E G)	.	.	voice
=39	=39	=39	=39	=39	=39	=39	=39	=39
*M2/4	*	*M2/4	*	*M4/4	*M4/4	*M4/4	*M4/4	*M4/4
2r	.	2r	.	1FM	F:maj (F A C)	.	.	voice
=40	=40	=40	=40	=40	=40	=40	=40	=40
*M4/4	*	*M4/4	*	*	*	*	*	*
1r	.	1r	.	.	.	.	.	.
=39	=39	=39	=39	=39	=39	=39	=39	=39
*	*	*	*	*M2/4	*M2/4	*M2/4	*M2/4	*M2/4
.	.	.	.	4Dmm	D:min7 (D F A C)	newline	105.047	voice
.	.	.	.	4FM	F:maj (F A C)	.	.	voice
=41	=41	=41	=41	=41	=41	=41	=41	=41
*M2/4	*	*M2/4	*	*M4/4	*M4/4	*M4/4	*M4/4	*M4/4
8.d	Yeah,	2r	.	1GM	G:maj (G B D)	.	.	voice
[16e	yeah,	.	.	.	.	.	.	.
8e]	_	.	.	.	.	.	.	.
8eq	_	.	.	.	.	.	.	.
[8f	yeah!	.	.	.	.	.	.	.
=42	=42	=42	=42	=42	=42	=42	=42	=42
*M4/4	*	*M4/4	*	*	*	*	*	*
4f_	_	1r	.	.	.	.	.	.
16.f]	_	.	.	.	.	.	.	.
32e	_	.	.	.	.	.	.	.
32d	_	.	.	.	.	.	.	.
32c	_	.	.	.	.	.	.	.
16r	_	.	.	.	.	.	.	.
=41	=41	=41	=41	=41	=41	=41	=41	=41
*	*	*	*	*M2/4	*M2/4	*M2/4	*M2/4	*M2/4
2r	.	.	.	4GM	G:maj (G B D)	.	.	voice
.	.	.	.	4CM	C:maj (C E G)	.	.	voice
=43	=43	=43	=43	=43	=43	=43	=43	=43
*	*	*	*	*M4/4	*M4/4	*M4/4	*M4/4	*M4/4
8B-q	_	.	.	.	.	.	.	.
2.c	Hah	1r	.	1FM	F:maj (F A C)	.	.	voice
4r	...	.	.	.	.	.	.	.
=44	=44	=44	=44	=44	=44	=44	=44	=44
1r	.	1r	.	1CMm	C:7 (C E G B-)	newline	114.039	voice
=45	=45	=45	=45	=45	=45	=45	=45	=45
1r	.	1r	.	1CMm	C:7 (C E G B-)	.	.	voice
=46	=46	=46	=46	=46	=46	=46	=46	=46
*	*	*	*	*>D_bridge	*>D_bridge	*>D_bridge	*>D_bridge	*>D_bridge
1r	.	1r	.	2.GM	G:maj (G B D)	newline	120.005	voice
.	.	.	.	4CM	C:maj (C E G)	.	.	voice
=47	=47	=47	=47	=47	=47	=47	=47	=47
1r	.	1r	.	2.DM	D:maj (D F# A)	.	.	voice
.	.	.	.	4CM	C:maj (C E G)	.	.	voice
=48	=48	=48	=48	=48	=48	=48	=48	=48
*A:	*	*A:	*	*	*	*	*	*
1r	.	1r	.	2.GM	G:maj (G B D)	.	.	voice
.	.	.	.	4CM	C:maj (C E G)	.	.	voice
=49	=49	=49	=49	=49	=49	=49	=49	=49
1r	.	1r	.	1AMm	A:7 (A C# E G)	newline	129.015	voice
=50	=50	=50	=50	=50	=50	=50	=50	=50
2r	.	1r	.	1AMm	A:7 (A C# E G)	.	.	voice
8A	Af-	.	.	.	.	.	.	.
16c#	-ter	.	.	.	.	.	.	.
16e	what	.	.	.	.	.	.	.
16r	.	.	.	.	.	.	.	.
8a	you	.	.	.	.	.	.	.
16aq	_	.	.	.	.	.	.	.
16b	meant	.	.	.	.	.	.	.
=51	=51	=51	=51	=51	=51	=51	=51	=51
16r	.	1r	.	1AMm	A:7 (A C# E G)	newline	135.176	voice
16gq	_	.	.	.	.	.	.	.
8f#	to	.	.	.	.	.	.	.
[16e	me,	.	.	.	.	.	.	.
4e]	_	.	.	.	.	.	.	.
4r	_	.	.	.	.	.	.	.
8f#q	_	.	.	.	.	.	.	.
8.g#	ooh,	.	.	.	.	.	.	.
[16f#	ba	.	.	.	.	.	.	.
=52	=52	=52	=52	=52	=52	=52	=52	=52
16f#]	_	1r	.	1EMm	E:7 (E G# B D)	.	.	voice
16d	by	.	.	.	.	.	.	.
16c#	_	.	.	.	.	.	.	.
[16B	now,	.	.	.	.	.	.	.
8.B]	_	.	.	.	.	.	.	.
[16f#	I	.	.	.	.	.	.	.
16f#]	_	.	.	.	.	.	.	.
8f#	can	.	.	.	.	.	.	.
[16f#	make	.	.	.	.	.	.	.
16f#]	_	.	.	.	.	.	.	.
16g#	it	.	.	.	.	.	.	.
16a#	_	.	.	.	.	.	.	.
[16g#	ea	.	.	.	.	.	.	.
=53	=53	=53	=53	=53	=53	=53	=53	=53
16g#]	_	2r	.	2BM	B:maj (B D# F#)	.	.	voice
16e#	si	.	.	.	.	.	.	.
16d#	_	.	.	.	.	.	.	.
[16c#	ly	.	.	.	.	.	.	.
8c#]	_	.	.	.	.	.	.	.
8r	.	.	.	.	.	.	.	.
2r	.	4c# g#	Yeah,	2F#M	F#:maj (F# A# C#)	.	.	voice
.	.	4B f#	yeah,	.	.	.	.	.
=54	=54	=54	=54	=54	=54	=54	=54	=54
2r	.	2.A e	yeah!	2.C#M	C#:maj (C# E# G#)	.	.	voice
16A	I	.	.	.	.	.	.	.
8c#	know	.	.	.	.	.	.	.
[16e	that	.	.	.	.	.	.	.
16e]	_	4r	_	4BM	B:maj (B D# F#)	.	.	voice
8a	we	.	.	.	.	.	.	.
16aq	_	.	.	.	.	.	.	.
[16b	both	.	.	.	.	.	.	.
=55	=55	=55	=55	=55	=55	=55	=55	=55
16b]	_	[2.B [e	_	1AMm	A:7 (A C# E G)	newline	147.282	voice
16gq	_	.	.	.	.	.	.	.
8f#	a-	.	.	.	.	.	.	.
[16e	-gree,	.	.	.	.	.	.	.
8e]	_	.	.	.	.	.	.	.
8r	_	.	.	.	.	.	.	.
8g#	best	.	.	.	.	.	.	.
16g#	thing	.	.	.	.	.	.	.
16f#	to	.	.	.	.	.	.	.
16g#	hap-	8B] e]	_	.	.	.	.	.
16f#	-pen	.	.	.	.	.	.	.
16e	to	8r	.	.	.	.	.	.
8f#q	_	.	.	.	.	.	.	.
[16g#	you	.	.	.	.	.	.	.
=56	=56	=56	=56	=56	=56	=56	=56	=56
16g#]	_	2B f#	_	1EMm	E:7 (E G# B D)	.	.	voice
8f#	_	.	.	.	.	.	.	.
16r	.	.	.	.	.	.	.	.
8.r	.	.	.	.	.	.	.	.
16c#	the	.	.	.	.	.	.	.
8cc#	best	2c# f#	_	.	.	.	.	.
16cc#	thing	.	.	.	.	.	.	.
16cc#	to	.	.	.	.	.	.	.
16a#	hap-	.	.	.	.	.	.	.
16g#	-pen	.	.	.	.	.	.	.
16f#	to	.	.	.	.	.	.	.
[16a#	me,	.	.	.	.	.	.	.
=57	=57	=57	=57	=57	=57	=57	=57	=57
16a#]	_	2r	.	2BM	B:maj (B D# F#)	.	.	voice
[8.g#	_	.	.	.	.	.	.	.
8.g#]	_	.	.	.	.	.	.	.
16f#	y-	.	.	.	.	.	.	.
8.g#	-yeah,	4c# g#	Yeah,	2F#M	F#:maj (F# A# C#)	.	.	voice
16f#	y-	.	.	.	.	.	.	.
8.f#	-yeah,	4B f#	yeah,	.	.	.	.	.
16e	y...	.	.	.	.	.	.	.
=58	=58	=58	=58	=58	=58	=58	=58	=58
1r	.	4.A e	yeah!	2.C#M	C#:maj (C# E# G#)	.	.	voice
.	.	8r	.	.	.	.	.	.
.	.	2r	.	.	.	.	.	.
.	.	.	.	4BM	B:maj (B D# F#)	.	.	voice
=59	=59	=59	=59	=59	=59	=59	=59	=59
*	*	*	*	*>E_outro	*>E_outro	*>E_outro	*>E_outro	*>E_outro
1r	.	1r	.	2AM	A:maj (A C# E)	newline	159.193	.
.	.	.	.	2EM	E:maj (E G# B)	.	.	.
=60	=60	=60	=60	=60	=60	=60	=60	=60
1r	.	1r	.	1BMm	B:7 (B D# F# A)	.	.	.
=61	=61	=61	=61	=61	=61	=61	=61	=61
1r	.	16e a	Wow!	2AM	A:maj (A C# E)	.	.	.
.	.	8.f# b	_	.	.	.	.	.
.	.	4r	_	.	.	.	.	.
.	.	2r	.	2EM	E:maj (E G# B)	.	.	.
=62	=62	=62	=62	=62	=62	=62	=62	=62
1r	.	1r	.	1BMm	B:7 (B D# F# A)	.	.	.
=63	=63	=63	=63	=63	=63	=63	=63	=63
1r	.	16e a	Wow!	2AM	A:maj (A C# E)	newline	171.228	.
.	.	8.f# b	_	.	.	.	.	.
.	.	4r	_	.	.	.	.	.
.	.	2r	.	2EM	E:maj (E G# B)	.	.	.
=64	=64	=64	=64	=64	=64	=64	=64	=64
1r	.	1r	.	1BMm	B:7 (B D# F# A)	.	.	.
=65	=65	=65	=65	=65	=65	=65	=65	=65
1r	.	16e a	Wow!	2AM	A:maj (A C# E)	.	.	.
.	.	8.f# b	_	.	.	.	.	.
.	.	4r	_	.	.	.	.	.
.	.	2r	.	2EM	E:maj (E G# B)	.	.	.
=66	=66	=66	=66	=66	=66	=66	=66	=66
*	*	*clefC3	*	*	*	*	*	*
4r	.	4r	.	1BMm	B:7 (B D# F# A)	.	.	.
8g#	Fee-	8c#	Fee-	.	.	.	.	.
8b	-lin'	8e	-lin'	.	.	.	.	.
8b	stron-	8e	stron-	.	.	.	.	.
8b	-ger	8e	-ger	.	.	.	.	.
8b	ev-	8e	ev-	.	.	.	.	.
16g#	-'ry-	16c#	-'ry-	.	.	.	.	.
[16f#	-day!	[16B	-day!	.	.	.	.	.
=67	=67	=67	=67	=67	=67	=67	=67	=67
2.f#_	_	2.B_	_	2AM	A:maj (A C# E)	newline	182.973	.
.	.	.	.	2EM	E:maj (E G# B)	.	.	.
8f#]	_	8B]	_	.	.	.	.	.
8r	_	8r	_	.	.	.	.	.
=68	=68	=68	=68	=68	=68	=68	=68	=68
4r	.	4r	.	1BMm	B:7 (B D# F# A)	.	.	.
8f#	Fee-	8B	Fee-	.	.	.	.	.
8g#	-lin'	8c#	-lin'	.	.	.	.	.
8b	stron-	8e	stron-	.	.	.	.	.
8b	-ger	8e	-ger	.	.	.	.	.
8b	ev-	8e	ev-	.	.	.	.	.
16g#	-'ry-	16c#	-'ry-	.	.	.	.	.
[16f#	-day!	[16B	-day!	.	.	.	.	.
=69	=69	=69	=69	=69	=69	=69	=69	=69
2.f#_	_	2.B_	_	2AM	A:maj (A C# E)	.	.	.
.	.	.	.	2EM	E:maj (E G# B)	.	.	.
8f#]	_	8B]	_	.	.	.	.	.
8r	_	8r	_	.	.	.	.	.
=70	=70	=70	=70	=70	=70	=70	=70	=70
1r	.	4r	.	1BMm	B:7 (B D# F# A)	.	.	.
.	.	8c# g#	Fee-	.	.	.	.	.
.	.	8e b	-lin'	.	.	.	.	.
.	.	8e b	stron-	.	.	.	.	.
.	.	8e b	-ger	.	.	.	.	.
.	.	8e b	ev-	.	.	.	.	.
.	.	16c# g#	-'ry-	.	.	.	.	.
.	.	[16B [f#	-day!	.	.	.	.	.
=71	=71	=71	=71	=71	=71	=71	=71	=71
2r	.	2.B_ f#_	_	2AM	A:maj (A C# E)	newline	194.683	.
16e b	(vocalizing)	.	.	2EM	E:maj (E G# B)	.	.	.
16c# g#	_	.	.	.	.	.	.	.
16A e	_	.	.	.	.	.	.	.
16B f#	_	.	.	.	.	.	.	.
16r	.	8B] f#]	_	.	.	.	.	.
16B f#	_	.	.	.	.	.	.	.
[8A [e	_	8r	_	.	.	.	.	.
=72	=72	=72	=72	=72	=72	=72	=72	=72
2A] e]	_	4r	.	1BMm	B:7 (B D# F# A)	.	.	.
.	.	8c# g#	Fee-	.	.	.	.	.
.	.	8e b	-lin'	.	.	.	.	.
2r	.	8e b	stron-	.	.	.	.	.
.	.	8e b	-ger	.	.	.	.	.
.	.	8e b	ev-	.	.	.	.	.
.	.	16c# g#	-'ry-	.	.	.	.	.
.	.	[16B [f#	-day!	.	.	.	.	.
=73	=73	=73	=73	=73	=73	=73	=73	=73
2r	.	2.B_ f#_	_	2AM	A:maj (A C# E)	.	.	.
16e b	(vocalizing)	.	.	2EM	E:maj (E G# B)	.	.	.
16c# g#	_	.	.	.	.	.	.	.
16A e	_	.	.	.	.	.	.	.
16B f#	_	.	.	.	.	.	.	.
16r	.	8B] f#]	_	.	.	.	.	.
16B f#	_	.	.	.	.	.	.	.
[8A [e	_	8r	_	.	.	.	.	.
=74	=74	=74	=74	=74	=74	=74	=74	=74
2A] e]	_	4r	.	1BMm	B:7 (B D# F# A)	.	.	.
.	.	8c# g#	Fee-	.	.	.	.	.
.	.	8e b	-lin'	.	.	.	.	.
2r	.	8e b	stron-	.	.	.	.	.
.	.	8e b	-ger	.	.	.	.	.
.	.	8e b	ev-	.	.	.	.	.
.	.	16c# g#	-'ry-	.	.	.	.	.
.	.	[16B [f#	-day!	.	.	.	.	.
=75	=75	=75	=75	=75	=75	=75	=75	=75
2r	.	2.B_ f#_	_	2AM	A:maj (A C# E)	newline	206.593	.
16e b	(vocalizing)	.	.	2EM	E:maj (E G# B)	.	.	.
16c# g#	_	.	.	.	.	.	.	.
16A e	_	.	.	.	.	.	.	.
16B f#	_	.	.	.	.	.	.	.
16r	.	8B] f#]	_	.	.	.	.	.
16B f#	_	.	.	.	.	.	.	.
[8A [e	_	8r	_	.	.	.	.	.
=76	=76	=76	=76	=76	=76	=76	=76	=76
2A] e]	_	4r	.	1BMm	B:7 (B D# F# A)	.	.	.
.	.	8c# g#	Fee-	.	.	.	.	.
.	.	8e b	-lin'	.	.	.	.	.
2r	.	8e b	stron-	.	.	.	.	.
.	.	8e b	-ger	.	.	.	.	.
.	.	8e b	ev-	.	.	.	.	.
.	.	16c# g#	-'ry-	.	.	.	.	.
.	.	[16B [f#	-day!	.	.	.	.	.
=77	=77	=77	=77	=77	=77	=77	=77	=77
2r	.	2.B_ f#_	_	2AM	A:maj (A C# E)	.	.	.
16e b	(vocalizing)	.	.	2EM	E:maj (E G# B)	.	.	.
16c# g#	_	.	.	.	.	.	.	.
16A e	_	.	.	.	.	.	.	.
16B f#	_	.	.	.	.	.	.	.
16r	.	8B] f#]	_	.	.	.	.	.
16B f#	_	.	.	.	.	.	.	.
[8A [e	_	8r	_	.	.	.	.	.
=78	=78	=78	=78	=78	=78	=78	=78	=78
2A] e]	_	4r	.	1BMm	B:7 (B D# F# A)	.	.	.
.	.	8c# g#	Fee-	.	.	.	.	.
.	.	8e b	-lin'	.	.	.	.	.
2r	.	8e b	stron-	.	.	.	.	.
.	.	8e b	-ger	.	.	.	.	.
.	.	8e b	ev-	.	.	.	.	.
.	.	16c# g#	-'ry-	.	.	.	.	.
.	.	[16B [f#	-day!	.	.	.	.	.
=79	=79	=79	=79	=79	=79	=79	=79	=79
2r	.	2.B_ f#_	_	2AM	A:maj (A C# E)	newline	218.39	.
16e b	(vocalizing)	.	.	2EM	E:maj (E G# B)	.	.	.
16c# g#	_	.	.	.	.	.	.	.
16A e	_	.	.	.	.	.	.	.
16B f#	_	.	.	.	.	.	.	.
16r	.	8B] f#]	_	.	.	.	.	.
16B f#	_	.	.	.	.	.	.	.
[8A [e	_	8r	_	.	.	.	.	.
=80	=80	=80	=80	=80	=80	=80	=80	=80
2A] e]	_	4r	.	1BMm	B:7 (B D# F# A)	.	.	.
.	.	8c# g#	Fee-	.	.	.	.	.
.	.	8e b	-lin'	.	.	.	.	.
2r	.	8e b	stron-	.	.	.	.	.
.	.	8e b	-ger	.	.	.	.	.
.	.	8e b	ev-	.	.	.	.	.
.	.	16c# g#	-'ry-	.	.	.	.	.
.	.	[16B [f#	-day!	.	.	.	.	.
=81	=81	=81	=81	=81	=81	=81	=81	=81
2r	.	2.B_ f#_	_	2AM	A:maj (A C# E)	.	.	.
16e b	(vocalizing)	.	.	2EM	E:maj (E G# B)	.	.	.
16c# g#	_	.	.	.	.	.	.	.
16A e	_	.	.	.	.	.	.	.
16B f#	_	.	.	.	.	.	.	.
16r	.	8B] f#]	_	.	.	.	.	.
16B f#	_	.	.	.	.	.	.	.
[8A [e	_	8r	_	.	.	.	.	.
=82	=82	=82	=82	=82	=82	=82	=82	=82
2A] e]	_	4r	.	1BMm	B:7 (B D# F# A)	.	.	.
.	.	8c# g#	Fee-	.	.	.	.	.
.	.	8e b	-lin'	.	.	.	.	.
2r	.	8e b	stron-	.	.	.	.	.
.	.	8e b	-ger	.	.	.	.	.
.	.	8e b	ev-	.	.	.	.	.
.	.	16c# g#	-'ry-	.	.	.	.	.
.	.	[16B [f#	-day!	.	.	.	.	.
=83	=83	=83	=83	=83	=83	=83	=83	=83
*	*	*	*	*>_fadeout	*>_fadeout	*>_fadeout	*>_fadeout	*>_fadeout
2r	.	2.B_ f#_	_	2AM	A:maj (A C# E)	newline	230.322	.
16e b	(vocalizing)	.	.	2EM	E:maj (E G# B)	.	.	.
16c# g#	_	.	.	.	.	.	.	.
16A e	_	.	.	.	.	.	.	.
16B f#	_	.	.	.	.	.	.	.
16r	.	8B] f#]	_	.	.	.	.	.
16B f#	_	.	.	.	.	.	.	.
[8A [e	_	8r	_	.	.	.	.	.
=84	=84	=84	=84	=84	=84	=84	=84	=84
2A] e]	_	4r	.	1BMm	B:7 (B D# F# A)	.	.	.
.	.	8c# g#	Fee-	.	.	.	.	.
.	.	8e b	-lin'	.	.	.	.	.
2r	.	8e b	stron-	.	.	.	.	.
.	.	8e b	-ger	.	.	.	.	.
.	.	8e b	ev-	.	.	.	.	.
.	.	16c# g#	-'ry-	.	.	.	.	.
.	.	[16B [f#	-day!	.	.	.	.	.
=85	=85	=85	=85	=85	=85	=85	=85	=85
2r	.	2.B_ f#_	_	2AM	A:maj (A C# E)	.	.	.
16e b	(vocalizing)	.	.	2EM	E:maj (E G# B)	.	.	.
16c# g#	_	.	.	.	.	.	.	.
16A e	_	.	.	.	.	.	.	.
16B f#	_	.	.	.	.	.	.	.
16r	.	8B] f#]	_	.	.	.	.	.
16B f#	_	.	.	.	.	.	.	.
[8A [e	_	8r	_	.	.	.	.	.
=86	=86	=86	=86	=86	=86	=86	=86	=86
2A] e]	_	4r	.	1BMm	B:7 (B D# F# A)	.	.	.
.	.	8c# g#	Fee-	.	.	.	.	.
.	.	8e b	-lin'	.	.	.	.	.
2r	.	8e b	stron-	.	.	.	.	.
.	.	8e b	-ger	.	.	.	.	.
.	.	8e b	ev-	.	.	.	.	.
.	.	16c# g#	-'ry-	.	.	.	.	.
.	.	[16B [f#	-day!	.	.	.	.	.
=87	=87	=87	=87	=87	=87	=87	=87	=87
2r	.	2.B_ f#_	_	2AM	A:maj (A C# E)	newline	242.16	.
16e b	(vocalizing)	.	.	2EM	E:maj (E G# B)	.	.	.
16c# g#	_	.	.	.	.	.	.	.
16A e	_	.	.	.	.	.	.	.
16B f#	_	.	.	.	.	.	.	.
16r	.	8B] f#]	_	.	.	.	.	.
16B f#	_	.	.	.	.	.	.	.
8A e	_	8r	_	.	.	.	.	.
*-	*-	*-	*-	*	*	*	*
=87	=87	=87	=87	=87
1BMm	B:7 (B D# F# A)	.	.	.
=88	=88	=88	=88	=88
2AM	A:maj (A C# E)	.	.	.
2EM	E:maj (E G# B)	.	.	.
=89	=89	=89	=89	=89
1BMm	B:7 (B D# F# A)	.	.	.
1r;	r	.	251.774	r
1r;	r	.	253.91	r
*-	*-	*-	*-	*-
!!!BillboardChartDate: 1973/08/25, 1973/08/11
!!!BillboardPeak: 10, 10
!!!BillboardWeeksOnChart: 16, 16
!!!COC: Chicago
!!!EMD: Need to listen to song, there are clearly key changes missing. -Nat
!!!ENC: Nathaniel Condit-Schultz
!!!EST: Awating manual error checking and editing.
!!!OTL: Feelin' Stronger Every Day
!!!RDF**chordsym: original McGill chord annotation + (implied pitch class set, with bass pitch in first position)
!!!RDF**harmony: **recip + pitch class of root + harmonic quality
!!!RDF**leadinstrument: original McGill primary instrumentation annotation
!!!RDF**phrase: newline = linebreak in original McGill transcription
!!!RDF**timestamp: McGill audio timestamp in seconds
!!!RDT: 2017/01/12/
!!!SampleActualRank: 11, 11
!!!SampleID#: 366, 684
!!!SampleTargetRank: 9, 11
